build/documents/RotateLeftSolid.svg

<svg xmlns="http://www.w3.org/2000/svg" fill="none" viewBox="0 0 24 24" focusable="false"><path d="M0 0H24V24H0z"/><path fill="#74767B" fill-rule="evenodd" d="M5.87803 10.5268C5.62419 10.7807 5.21264 10.7807 4.95879 10.5268L3.19307 8.76109C2.93923 8.50725 2.93923 8.09569 3.19307 7.84185C3.44691 7.58801 3.85846 7.58801 4.11231 7.84185L4.76845 8.498C4.77118 4.9103 7.68042 2.00275 11.2688 2.00275C11.6277 2.00275 11.9188 2.29376 11.9188 2.65275C11.9188 3.01173 11.6277 3.30275 11.2688 3.30275C8.39842 3.30275 6.07122 5.62823 6.06845 8.49792L6.72452 7.84185C6.97836 7.58801 7.38992 7.58801 7.64376 7.84185C7.8976 8.09569 7.8976 8.50725 7.64376 8.76109L5.87803 10.5268ZM22 8.69979C22 7.04293 20.6569 5.69978 19 5.69978L12.2566 5.69978C10.5998 5.69978 9.25665 7.04293 9.25665 8.69978L9.25665 18C9.25665 19.6568 10.5998 21 12.2566 21L19 21C20.6569 21 22 19.6568 22 18L22 8.69979Z"/></svg>

<svg xmlns="http://www.w3.org/2000/svg" fill="none" viewBox="0 0 24 24" focusable="false"><path fill="#74767B" fill-rule="evenodd" d="M5.87 10.52a.64.64 0 0 1-.92 0L3.19 8.76a.64.64 0 0 1 0-.92.64.64 0 0 1 .92 0l.65.65C4.77 4.91 7.68 2 11.26 2c.36 0 .65.29.65.65s-.29.65-.65.65a5.2 5.2 0 0 0-5.2 5.19l.66-.65a.64.64 0 0 1 .92 0c.25.25.25.66 0 .92zM22 8.69c0-1.65-1.35-3-3-3h-6.75c-1.66 0-3 1.35-3 3V18c0 1.65 1.34 3 3 3H19c1.65 0 3-1.35 3-3z"/></svg>
